resources/svg/regular/grid-vertical.svg

<svg xmlns="http://www.w3.org/2000/svg" fill="currentColor" stroke="none" viewBox="0 0 24 24"><path d="M7 10h4v4H7zm0-6h4v4H7zm0 12h4v4H7zm6-6h4v4h-4zm0-6h4v4h-4zm0 12h4v4h-4z"/></svg>

<svg xmlns="http://www.w3.org/2000/svg" fill="currentColor" stroke="none" viewBox="0 0 24 24"><path d="M7 10H11V14H7zM7 4H11V8H7zM7 16H11V20H7zM13 10H17V14H13zM13 4H17V8H13zM13 16H17V20H13z"/></svg>
